X:1
T: I Lost my Love
C:
R:Jig
Q:180
K:Am
M:6/8
L:1/16
|:E2|A2A2A2 A2G2E2|c6 c4d2|e2f2e2 e2d2c2|g6 e4a2|
g2e2c2 c2g2e2|d2B2G2 G2A2B2|c4A2 B2G2E2|c6 A4:|
g2|a2b2a2 a2g2e2|g2a2g2 g2e2g2|a2b2a2 a2g2e2|g6 e4a2|
g2e2c2 c2g2e2|d2B2G2 G2e2d2|c4A2 B2G2E2|c6 A6|
a2b2a2 a2g2e2|g2a2g2 g2e2g2|a2b2a2 a2g2e2|g6e4a2|
g2e2c2 c2g2e2|d2B2G2 G2e2d2|c4A2 B2G2E2|c6 A4||
